Numix/64/mimetypes/image-x-pcx.svg

<?xml version="1.0" encoding="UTF-8" standalone="no"?>
<svg
   xmlns:dc="http://purl.org/dc/elements/1.1/"
   xmlns:cc="http://creativecommons.org/ns#"
   xmlns:rdf="http://www.w3.org/1999/02/22-rdf-syntax-ns#"
   xmlns:svg="http://www.w3.org/2000/svg"
   xmlns="http://www.w3.org/2000/svg"
   xmlns:sodipodi="http://sodipodi.sourceforge.net/DTD/sodipodi-0.dtd"
   xmlns:inkscape="http://www.inkscape.org/namespaces/inkscape"
   width="64px"
   height="64px"
   viewBox="0 0 64 64"
   version="1.1"
   id="svg2"
   inkscape:version="0.91 r13725"
   sodipodi:docname="image-x-pcx.svg">
  <metadata
     id="metadata25">
    <rdf:RDF>
      <cc:Work
         rdf:about="">
        <dc:format>image/svg+xml</dc:format>
        <dc:type
           rdf:resource="http://purl.org/dc/dcmitype/StillImage" />
        <dc:title></dc:title>
      </cc:Work>
    </rdf:RDF>
  </metadata>
  <defs
     id="defs23" />
  <sodipodi:namedview
     pagecolor="#ffffff"
     bordercolor="#666666"
     borderopacity="1"
     objecttolerance="10"
     gridtolerance="10"
     guidetolerance="10"
     inkscape:pageopacity="0"
     inkscape:pageshadow="2"
     inkscape:window-width="1366"
     inkscape:window-height="704"
     id="namedview21"
     showgrid="false"
     inkscape:zoom="1"
     inkscape:cx="33.275866"
     inkscape:cy="8.4206297"
     inkscape:window-x="0"
     inkscape:window-y="27"
     inkscape:window-maximized="1"
     inkscape:current-layer="svg2">
    <inkscape:grid
       type="xygrid"
       id="grid4141" />
  </sodipodi:namedview>
  <g
     id="surface1">
    <path
       style=" stroke:none;fill-rule:nonzero;fill:rgb(21.960784%,63.921569%,30.588235%);fill-opacity:1;"
       d="M 10.671875 0 C 9.296875 0 8 1.355469 8 2.789062 L 8 61.210938 C 8 62.566406 9.375 64 10.671875 64 L 53.328125 64 C 54.625 64 56 62.566406 56 61.210938 L 56 18 L 38 0 Z M 10.671875 0 "
       id="path5" />
    <path
       style=" stroke:none;fill-rule:nonzero;fill:rgb(0%,0%,0%);fill-opacity:0.196078;"
       d="M 42 18 L 56 32 L 56 18 Z M 42 18 "
       id="path7" />
    <path
       style=" stroke:none;fill-rule:nonzero;fill:rgb(100%,100%,100%);fill-opacity:0.392157;"
       d="M 38 0 L 55.984375 18 L 40.757812 18 C 39.410156 18 38 16.574219 38 15.226562 Z M 38 0 "
       id="path9" />
    <path
       style="fill:#ffffff;fill-opacity:1;fill-rule:nonzero;stroke:none"
       d="M 23.289062,22 C 22.585938,22.066406 21.984375,22.8125 22,23.605469 l 0,16.828125 c 0.0078,0.828125 0.667969,1.574218 1.40625,1.566406 l 17.222656,0 C 41.355469,41.984375 41.992188,41.253906 42,40.433594 L 42,23.605469 C 42.015625,22.769531 41.371094,22.007812 40.628906,22 Z M 24,24 40,24 40,35.402344 35.296875,30.085938 32.316406,32.859375 28.386719,27.9375 24,33.597656 Z"
       id="path11"
       inkscape:connector-curvature="0"
       sodipodi:nodetypes="ccccccccccccccccc" />
    <path
       style=" stroke:none;fill-rule:nonzero;fill:rgb(0%,0%,0%);fill-opacity:0.196078;"
       d="M 8 48 L 8 61.335938 C 8 62.632812 9.375 64 10.664062 64 L 53.335938 64 C 54.625 64 56 62.632812 56 61.335938 L 56 48 Z M 8 48 "
       id="path13" />
    <path
       style="fill:#ffffff;fill-opacity:1;fill-rule:nonzero;stroke:none"
       d="m 21.078094,50.941406 c 1.446025,0 2.567878,0.285156 3.361919,0.859375 0.804967,0.566407 1.201987,1.5 1.201987,2.789063 0,1.3125 -0.404304,2.253906 -1.216558,2.84375 -0.801323,0.574218 -1.934103,0.871094 -3.40927,0.871094 l -0.801325,0 0,3.6875 -2.214847,0 0,-10.789063 c 1.044542,-0.205317 2.031435,-0.238925 3.078094,-0.261724 m 0.251324,1.886719 c -0.393245,-0.0047 -0.718805,0.03052 -1.114571,0.05469 l 0,3.527344 0.917881,0 c 0.724836,0 1.26755,-0.132812 1.635432,-0.402344 0.36788,-0.285156 0.549999,-0.761718 0.549999,-1.433593 0,-0.632813 -0.182119,-1.082031 -0.549999,-1.335938 -0.353313,-0.273437 -0.834107,-0.410156 -1.438742,-0.410156"
       id="path19"
       inkscape:connector-curvature="0"
       sodipodi:nodetypes="ccscsccccccccscscc" />
  </g>
  <path
     style="fill:#ffffff;fill-opacity:1;fill-rule:nonzero;stroke:none"
     d="M 44.064045,62 C 43.389424,60.52658 42.588094,59.137592 41.843554,57.8125 41.005995,59.237539 40.251918,60.595082 39.543542,62 L 36.8,62 c 1.036289,-2.020431 2.367435,-3.898193 3.596017,-5.785156 l -3.384489,-5.160157 2.783079,0 2.048947,3.503907 2.156775,-3.503907 2.596438,0 -3.305684,5.109376 C 44.655279,58.04797 45.82208,59.94697 46.8,62 l -2.735955,0"
     id="path15"
     inkscape:connector-curvature="0"
     sodipodi:nodetypes="ccccccccccccc" />
  <path
     inkscape:connector-curvature="0"
     style="fill:#ffffff;fill-opacity:1;fill-rule:nonzero;stroke:none"
     d="m 32.375913,62.199997 c -1.686964,0 -2.967523,-0.492188 -3.85318,-1.484375 C 27.64091,59.735153 27.2,58.336716 27.2,56.512497 c 0,-0.898438 0.130356,-1.707031 0.398737,-2.40625 0.272215,-0.710938 0.647947,-1.300781 1.123365,-1.785156 0.479251,-0.488282 1.054353,-0.855469 1.706134,-1.105469 0.670952,-0.257813 1.391746,-0.382813 2.173884,-0.382813 0.425575,0 0.801308,0.03125 1.138701,0.09766 0.341226,0.05859 0.644113,0.132812 0.897158,0.21875 0.260713,0.08203 0.467749,0.164062 0.636446,0.257812 0.180198,0.09766 0.310554,0.164063 0.40257,0.214844 l -0.613441,1.726563 c -0.295219,-0.175782 -0.655615,-0.328126 -1.077357,-0.441407 -0.410238,-0.125 -0.885656,-0.191406 -1.422417,-0.191406 -0.368065,0 -0.73613,0.06641 -1.096527,0.191406 -0.34506,0.113281 -0.663284,0.324219 -0.939332,0.613281 -0.272215,0.285157 -0.498422,0.667969 -0.678621,1.140626 -0.164861,0.484374 -0.245376,1.085937 -0.245376,1.800781 0,1.242187 0.230041,2.199219 0.693956,2.863281 0.475417,0.660156 1.242219,0.992188 2.30424,0.992188 0.613441,0 1.119531,-0.06641 1.522102,-0.191407 0.406405,-0.132812 0.73613,-0.257812 0.981506,-0.390625 L 35.7,61.442188 c -0.333559,0.191406 -0.789807,0.367187 -1.364908,0.523437 C 33.771493,62.125781 33.119711,62.2 32.375913,62.2"
     id="path27" />
</svg>

<svg xmlns="http://www.w3.org/2000/svg" viewBox="0 0 64 64">
 <g>
  <path d="m 10.672 0 c -1.375 0 -2.672 1.355 -2.672 2.789 l 0 58.42 c 0 1.355 1.375 2.789 2.672 2.789 l 42.656 0 c 1.297 0 2.672 -1.434 2.672 -2.789 l 0 -43.21 l -18 -18 m -27.328 0" style="fill:#37a34d;fill-opacity:1;stroke:none;fill-rule:nonzero"/>
  <path d="m 42 18 l 14 14 l 0 -14 m -14 0" style="fill:#000;fill-opacity:0.196;stroke:none;fill-rule:nonzero"/>
  <path d="m 38 0 l 17.984 18 l -15.227 0 c -1.348 0 -2.758 -1.426 -2.758 -2.773 m 0 -15.227" style="fill:#fff;fill-opacity:0.392;stroke:none;fill-rule:nonzero"/>
  <path d="m 23.289 22 c -0.703 0.066 -1.305 0.813 -1.289 1.605 l 0 16.828 c 0.008 0.828 0.668 1.574 1.406 1.566 l 17.223 0 c 0.727 -0.016 1.363 -0.746 1.371 -1.566 l 0 -16.828 c 0.016 -0.836 -0.629 -1.598 -1.371 -1.605 m -16.629 2 16 0 0 11.402 -4.703 -5.316 -2.98 2.773 -3.93 -4.922 -4.387 5.66" style="fill:#fff;fill-opacity:1;stroke:none;fill-rule:nonzero"/>
  <path d="m 8 48 l 0 13.336 c 0 1.297 1.375 2.664 2.664 2.664 l 42.672 0 c 1.289 0 2.664 -1.367 2.664 -2.664 l 0 -13.336 m -48 0" style="fill:#000;fill-opacity:0.196;stroke:none;fill-rule:nonzero"/>
  <path d="m 21.08 50.941 c 1.446 0 2.568 0.285 3.362 0.859 0.805 0.566 1.202 1.5 1.202 2.789 0 1.313 -0.404 2.254 -1.217 2.844 -0.801 0.574 -1.934 0.871 -3.409 0.871 l -0.801 0 0 3.688 -2.215 0 0 -10.789 c 1.045 -0.205 2.031 -0.239 3.078 -0.262 m 0.251 1.887 c -0.393 -0.005 -0.719 0.031 -1.115 0.055 l 0 3.527 0.918 0 c 0.725 0 1.268 -0.133 1.635 -0.402 0.368 -0.285 0.55 -0.762 0.55 -1.434 0 -0.633 -0.182 -1.082 -0.55 -1.336 -0.353 -0.273 -0.834 -0.41 -1.439 -0.41" style="fill:#fff;fill-opacity:1;stroke:none;fill-rule:nonzero"/>
 </g>
 <path d="m 44.06 62 c -0.675 -1.473 -1.476 -2.862 -2.22 -4.188 -0.838 1.425 -1.592 2.783 -2.3 4.188 l -2.744 0 c 1.036 -2.02 2.367 -3.898 3.596 -5.785 l -3.384 -5.16 2.783 0 2.049 3.504 2.157 -3.504 2.596 0 -3.306 5.109 c 1.364 1.884 2.531 3.783 3.509 5.836 l -2.736 0" style="fill:#fff;fill-opacity:1;stroke:none;fill-rule:nonzero"/>
 <path d="m 32.376 62.2 c -1.687 0 -2.968 -0.492 -3.853 -1.484 c -0.882 -0.98 -1.323 -2.379 -1.323 -4.203 c 0 -0.898 0.13 -1.707 0.399 -2.406 0.272 -0.711 0.648 -1.301 1.123 -1.785 0.479 -0.488 1.054 -0.855 1.706 -1.105 0.671 -0.258 1.392 -0.383 2.174 -0.383 0.426 0 0.801 0.031 1.139 0.098 0.341 0.059 0.644 0.133 0.897 0.219 0.261 0.082 0.468 0.164 0.636 0.258 0.18 0.098 0.311 0.164 0.403 0.215 l -0.613 1.727 c -0.295 -0.176 -0.656 -0.328 -1.077 -0.441 -0.41 -0.125 -0.886 -0.191 -1.422 -0.191 -0.368 0 -0.736 0.066 -1.097 0.191 -0.345 0.113 -0.663 0.324 -0.939 0.613 -0.272 0.285 -0.498 0.668 -0.679 1.141 -0.165 0.484 -0.245 1.086 -0.245 1.801 0 1.242 0.23 2.199 0.694 2.863 0.475 0.66 1.242 0.992 2.304 0.992 0.613 0 1.12 -0.066 1.522 -0.191 0.406 -0.133 0.736 -0.258 0.982 -0.391 l 0.594 1.707 c -0.334 0.191 -0.79 0.367 -1.365 0.523 c -0.564 0.16 -1.215 0.234 -1.959 0.234" style="fill:#fff;fill-opacity:1;stroke:none;fill-rule:nonzero"/>
</svg>
